X: 1096
T: Lady Cathe-rine Ogle, a new Dance.
N: It really does have that hyphen in her name.
%R: march
B: Henry Playford "Apollo's Banquet", London 1687 (5th Edition)
F: https://archive.org/details/apollosbanquetco01rugg
Z: 2017 John Chambers <jc:trillian.mit.edu>
M: C|
L: 1/8
K: Gm
% - - - - - - - - - -
G |\
D2G2 G3A | B2G2 G3c | c3d (cA)(GF) | F3G A3(G/F/) |\
D2G2 G3A | B2G2 G2f2 | d2cd (fd)(cA) | G4 B3 :|
|: A |\
(Bc)(de) (fe)(dc) | (Bc)(d=e) f3c | A2f2 (cA)(GF) | F3G A3(G/A/) |\
B2G2 G3A | B2G2 f3g | (ag)(fd) (cd)(cA) | G4 B3 :|
% - - - - - - - - - -

%%sep 1 1 500
%%sep 1 1 500

